src/assets/Imgs/favicon.svg

<svg width="100" height="100" xmlns="http://www.w3.org/2000/svg">

 <g>
  <title>Layer 1</title>
  <rect stroke="null" id="svg_1" fill="#000000" rx="20" height="100" width="100"/>
  <path id="svg_2" d="m32.58,47.92l0,4.22l-16.4,0l0,17.26l-5.16,0l0,-39.1l24.22,0l0,4.24l-19.06,0l0,13.38l16.4,0zm1.88,18.88l0,0q0,-1.29 0.77,-2.15q0.76,-0.86 2.3,-0.86q1.53,0 2.32,0.86q0.79,0.86 0.79,2.15l0,0q0,1.23 -0.79,2.07q-0.79,0.83 -2.32,0.83q-1.54,0 -2.3,-0.83q-0.77,-0.84 -0.77,-2.07zm37.98,2.6l-8.49,-15.81l-9.18,0l0,15.81l-5.19,0l0,-39.1l12.95,0q6.6,0 10.16,3.01q3.56,3.01 3.56,8.75l0,0q0,3.66 -1.97,6.37q-1.98,2.71 -5.49,4.05l0,0l9.18,16.6l0,0.32l-5.53,0zm-17.67,-34.86l0,14.83l7.92,0q3.84,0 6.11,-1.99q2.27,-1.99 2.27,-5.32l0,0q0,-3.62 -2.16,-5.55q-2.17,-1.94 -6.25,-1.97l0,0l-7.89,0zm28.03,32.26l0,0q0,-1.29 0.77,-2.15q0.76,-0.86 2.3,-0.86q1.53,0 2.32,0.86q0.79,0.86 0.79,2.15l0,0q0,1.23 -0.79,2.07q-0.79,0.83 -2.32,0.83q-1.54,0 -2.3,-0.83q-0.77,-0.84 -0.77,-2.07z" fill="#fff"/>
 </g>
</svg>

<svg xmlns="http://www.w3.org/2000/svg" width="256" height="256" viewBox="0 0 100 100"><rect width="100" height="100" rx="20" fill="#000000"></rect><path fill="#fff" d="M32.58 47.92L32.58 52.14L16.18 52.14L16.18 69.40L11.02 69.40L11.02 30.30L35.24 30.30L35.24 34.54L16.18 34.54L16.18 47.92L32.58 47.92ZM34.46 66.80L34.46 66.80Q34.46 65.51 35.23 64.65Q35.99 63.79 37.53 63.79Q39.06 63.79 39.85 64.65Q40.64 65.51 40.64 66.80L40.64 66.80Q40.64 68.03 39.85 68.87Q39.06 69.70 37.53 69.70Q35.99 69.70 35.23 68.87Q34.46 68.03 34.46 66.80ZM72.44 69.40L63.95 53.59L54.77 53.59L54.77 69.40L49.58 69.40L49.58 30.30L62.53 30.30Q69.13 30.30 72.69 33.31Q76.25 36.32 76.25 42.06L76.25 42.06Q76.25 45.72 74.28 48.43Q72.30 51.14 68.79 52.48L68.79 52.48L77.97 69.08L77.97 69.40L72.44 69.40ZM54.77 34.54L54.77 49.37L62.69 49.37Q66.53 49.37 68.80 47.38Q71.07 45.39 71.07 42.06L71.07 42.06Q71.07 38.44 68.91 36.51Q66.74 34.57 62.66 34.54L62.66 34.54L54.77 34.54ZM82.80 66.80L82.80 66.80Q82.80 65.51 83.57 64.65Q84.33 63.79 85.87 63.79Q87.40 63.79 88.19 64.65Q88.98 65.51 88.98 66.80L88.98 66.80Q88.98 68.03 88.19 68.87Q87.40 69.70 85.87 69.70Q84.33 69.70 83.57 68.87Q82.80 68.03 82.80 66.80Z"></path></svg>
